app/assets/images/mfa-options/phone.svg

<svg width="42" height="44" viewBox="0 0 42 44" fill="none" xmlns="http://www.w3.org/2000/svg"><path fill-rule="evenodd" clip-rule="evenodd" d="M13.4517 5.61497C13.2987 4.50633 12.4191 3.80712 11.5233 3.81626L11.5038 3.81636H5.74549C5.2348 3.81724 4.72562 4.04184 4.35033 4.47241C3.97404 4.90412 3.77381 5.49955 3.82365 6.11547C4.4269 12.0407 6.35277 17.7291 9.4404 22.7207L9.44896 22.7347C12.2544 27.3585 15.993 31.2712 20.394 34.2001L20.4089 34.2102C25.137 37.4213 30.5111 39.4237 36.1001 40.0632C36.6057 40.1067 37.1227 39.9301 37.5248 39.5437C37.9348 39.1498 38.1851 38.5726 38.1827 37.9475L38.1827 37.9401V31.908C38.1827 31.8929 38.1828 31.8779 38.1832 31.8628C38.2103 30.7189 37.425 29.853 36.5168 29.7149C34.5281 29.4394 32.5765 28.9297 30.6992 28.196L30.6947 28.1943C30.0274 27.9315 29.2608 28.0867 28.7187 28.6456L26.2846 31.1949C25.6702 31.8383 24.6926 31.9718 23.9283 31.5166C18.8196 28.4743 14.6011 24.0513 11.7084 18.7235C11.313 17.9951 11.4329 17.0948 12.0053 16.4954L14.4392 13.9463C14.987 13.3636 15.1809 12.4677 14.8916 11.6615L14.8901 11.6573C14.1946 9.70538 13.7122 7.67845 13.4517 5.61497ZM11.4951 0.000199681C14.4471 -0.0244198 16.8457 2.23052 17.2345 5.11167L17.2367 5.12846C17.4625 6.92176 17.8812 8.68168 18.4842 10.3746C19.2481 12.5055 18.7683 14.9199 17.2109 16.5694L17.2036 16.5772L15.7483 18.1012C18.0151 21.8613 21.0404 25.0447 24.6029 27.4301L25.9701 25.9982C27.5589 24.3528 29.953 23.8022 32.09 24.6423C33.6925 25.2684 35.3562 25.7022 37.0496 25.9362L37.0674 25.9387C40.0091 26.3733 42.0563 29.0027 41.9988 31.9285V37.9368C42.0041 39.5748 41.3512 41.1594 40.1688 42.2955C38.9815 43.4363 37.3689 44.0166 35.7256 43.861C35.7204 43.8605 35.7152 43.86 35.71 43.8595C35.7033 43.8588 35.6965 43.8581 35.6897 43.8573C29.4735 43.1499 23.5082 40.9265 18.2722 37.372C13.4013 34.1288 9.2784 29.8081 6.19063 24.7213C2.79433 19.2282 0.684015 12.9806 0.025312 6.48427L0.0226418 6.45582C-0.117847 4.82763 0.399025 3.19777 1.47356 1.96497C2.55136 0.728407 4.09733 0.0021248 5.74197 0.000200932L5.74421 0.00019843L11.4951 0.000199681Z" fill="#0071BB"/></svg>

<svg width="42" height="44" viewBox="0 0 42 44" fill="none" xmlns="http://www.w3.org/2000/svg"><path fill-rule="evenodd" clip-rule="evenodd" d="M13.452 5.615c-.153-1.109-1.033-1.808-1.929-1.799H5.745a1.86 1.86 0 0 0-1.395.656 2.234 2.234 0 0 0-.526 1.643c.603 5.926 2.529 11.614 5.616 16.606l.009.014c2.805 4.623 6.544 8.536 10.945 11.465l.015.01c4.728 3.211 10.102 5.214 15.691 5.853a1.826 1.826 0 0 0 1.425-.52c.41-.393.66-.97.658-1.596v-6.084c.027-1.144-.758-2.01-1.666-2.148a25.647 25.647 0 0 1-5.818-1.519l-.004-.002c-.668-.262-1.434-.107-1.976.452l-2.434 2.549a1.908 1.908 0 0 1-2.357.322c-5.108-3.043-9.327-7.466-12.22-12.793a1.908 1.908 0 0 1 .297-2.229l2.434-2.549c.548-.582.742-1.478.453-2.284l-.002-.005a28.724 28.724 0 0 1-1.438-6.042ZM11.495 0c2.952-.024 5.35 2.23 5.74 5.112l.002.016a24.914 24.914 0 0 0 1.247 5.247c.764 2.13.284 4.545-1.273 6.194l-.007.008-1.456 1.524c2.267 3.76 5.292 6.944 8.855 9.33l1.367-1.433c1.589-1.645 3.983-2.196 6.12-1.356a21.84 21.84 0 0 0 4.96 1.294l.017.003c2.942.434 4.99 3.064 4.932 5.99v6.008a6.019 6.019 0 0 1-1.83 4.358 5.64 5.64 0 0 1-4.443 1.566l-.016-.002c-.007 0-.014 0-.02-.002-6.216-.707-12.182-2.93-17.418-6.485-4.87-3.243-8.994-7.564-12.081-12.65C2.794 19.227.684 12.98.025 6.483l-.002-.028a6.05 6.05 0 0 1 1.45-4.491A5.672 5.672 0 0 1 5.743 0h5.753Z" fill="#0071BB"/></svg>
